X:324
T:Here Goes!
C:Colin Hume, 1991
L:1/4
M:2/2
S:Colin Hume's website,  colinhume.com  - chords can also be printed below the stave.
Q:1/2=112
H:For the wedding of Philip Rowe and Joyce Bradley, 1991
K:G
P:A
|: "G"B/dB/ "G7"dD | "C"E/GE/ "Cm"G_E | "G"D/B^A/ "Em"BG | "D"AF "/"ED |\
"C"z[ce]/[ce][Bd]/[Ac] | "G"[Bd]G- "/"GD |1 "Am"^DE "/"BA | "D"D4 :|2 "Am"^DE "D7"BA | "G"G4 |]
P:B
[| "B7"z/B^A/ "/"BF | "Em"AG- "/"G2 | "A7"z/A^G/ "/"AE | "D"F4 |\
"F#7"z/FF/ "/"^G^A | "Bm"B^c "/"d^d | "E7"e "^(Break)"d^cB | "A"A2- "A7"A2 |
P:C
"D"f/af/ "D7"af | "G"dB- "/"B2 | "Em"e/ge/ "/"ge | "A"^c2- "A7"cA/G/ |\
"D"FF "G"G/A/B | "D"Ad- "Bm"de | "D/A"ff/e/- "A7"e/d/^c | "D"d2- "D7"d2 |]

